X: 67
T:Macklemoyles
M:4/4
L:1/8
R:Reel
K:D
|DFAc d2 d2|cdec dBAF|DFA=c BGBG|FGAF E2 FE|!
DFAc d2 d2|cdec dBAF|DFA=c BGBd|cdec d2 d2:|!
Acef gf g2|Ace^g a^g a2|Acef gf ge|dfed cB A2|!
Acef gf g2|Ace^g a^g a2|Acef gf ge|cdec d2 d2:|!
